X:1
T:Bourree
A:France
Z:abc transcription Simon Wascher
M:2/4
L:1/8
K:Dm
A2 GA | DEF2 | G3 c | AGA2 |\
A2 GA | DEF2 | G>F Gc | A4 :| 
G2d2  | c G- G B | A>G AB | AGFD | 
G2d2  | c G- G B | A>G AB | A4 :|
